X:1
T:ໜາວໝອກ
T:ເນື້ອຮ້ອງ & ທຳນອງ : ສນອງ ອຸ່ນວົງ & ສ. ບົວລະພັນ ນັກຮ້ອງຕົ້ນສະບັບ : ກ. ວິເສດ
T:1968
T:© studiodavong
C:Sanong OUNVONG & S. BOULAPHANH
Z:© studiodavong
%%score ( 1 2 )
L:1/8
Q:1/4=65
M:4/4
K:Eb
V:1 treble nm="Piano" snm="Pno."
V:2 treble 
V:1
"^Slow Bolero" z4 z"_Guitar Hawaïen __________  Sax ____________________________________________________________________" CEG | %1
w: |
"Cm" c4 dcdB |"Fm" c3 e"Eb" BcGB |"Bb" F2 EG"Gm" F B,2 D |"Cm" C>G, B,C z C z C/C/ | %5
w: ||||
 C>G, B,C z C z C/C/ ||"^A" C (B/c/) GB{B} cB (G/B/)E |"Cm" C3 c c(B/d/) cB | %8
w: |* ໜາວ- * ໝອກ ເມືອງ ເໜືອ ເພື່ອ ສາວ- * ເມືອງ|ໃຕ້ ວັງ ວຽງ ສຳ- * ຣານ ເລີງ|
"Fm" F3 (E/G/) F{B}G B{c}e |"Eb" G4 z G G(B/F/) |"Cm" G3 G BC E(F/G/) |"Fm" F3 (E/F/) CE F(B/G/) | %12
w: ໃຈ ໜາວ- * ໃນ ຊື່ນ ໄປ ທຸກ|ແຫ່ງ ມີ ສາຍ ນໍ້າ- *|ຊອງ ໄຫຼ ລ່ອງ ຜ່ານ ເນີນ ຫິນ- *|ແກ່ງ ໜາວ- * ໝອກ ຊ່າງ ມາ ຮ້າຍ- *|
"Bb" B3 (G/B/) FE (G/E/)F |"Cm" G8 |:"^B" c (B/c/) GB{B} cBGE |"Cm" C3 c cBcB |"Fm" F3 G FE{c} eB | %17
w: ແຮງ ແຂງ- * ໃຈ ຂາດ ຄູ່- * ແອບ|ອິງ|* ໜາວ- * ໝອກ ປານ ໃດ ອ້າຍ ຍັງ ຄິດ|ວ່າ ເປັນ ແດນ ສຸກ ສົມ ອຸ|ຣາ ພະ ນາ ແຫ່ງ ນັ້ນ ງາມ|
"Eb"{c} G4 z B (B/F/)G |"Cm" G3 G BECE |"Fm" F3 (E/F/) CEFG |"Bb" B3 E FE^F=F |"Eb" E8 || %22
w: ຍິ່ງ ນົກ ນ້ອຍ- * ງອຍ|ຄຽງ ສົ່ງ ສຽງ ອອດ ອ້ອນ ສຸກ|ຈິງ ໜາວ- * ໝອກ ຂາດ ຄົນ ແອບ|ອິງ ຂາດ ຍິງ ຍິ່ງ ໜາວ ຣະ|ທົມ|
"Cm""^C" (E C2) E FFFG | (G c2) e dGed | c3 d cB (B/E/)F |"Eb" G6 =AG |"F" (=A F2) G cGBG | %27
w: ພາບ _ ພຶກ ສາ ມາ ລາ ຫຼາກ|ສີ _ ເໝືອນ ແດນ ສຸ ຂາ ວະ|ດີ ຊ່າງ ງາມ ເຫຼືອ ທີ່- * ຊວນ|ຊົມ ຊວນ ໃຈ|ຂ້າ _ ຝັນ ຫາ ໃຝ່ ໃຈ ນິ|
"Fm" F4 DCB,C |"Eb" GBdc"Bb" BEFG |"Cm" c8 ||"^D" c (B/c/) G{c}B cF{G}BF |"Cm"{G} E3 c{B} dcdc | %32
w: ຍົມ ທັມ ມະ ຊາດ ງາມ|ສົມ ສຸດ ແສນ ຊື່ນ ຊົມ ປານ ແດນ ສ|ວັນ|* ໜາວ- * ໝອກ ອ້າຍ ທົນ ບົນ ເຂົາ ຢູ່|ເຈີ້ຍ ອາ ສັຍ ຖິ່ນ ພັກ ຊິດ|
"Fm" F3 E FG{c} eB |"Eb"{c} G4 z B (B/F/)G |"Cm" G3 G{G} BEC{E}G |"Fm" F3 (E/F/) C{E}GFG | %36
w: ເຊີຍ ບໍ່ ເຄີຍ ຫວັ່ນ ໄຫວ ໜາວ|ນັ້ນ ເພາະ ຂ້າ- * ຍັງ|ມີ ພາ ຣະ ໜ້າ ທີ່ ສຳ|ຄັນ ໜາວ- * ໝອກ ຫຼື ຈະ ມາ|
"Bb" B>c eB c3{c} C!dacoda! ||1"Eb""Cm" E8 :|2O"Eb""Cm""^E" E8 ||"Cm" !>!c>G B!>!c z GBG | %40
w: ກັ້ນ ຊີ ວິດ ທະ ຫານ ຕ້ອງ|ທົນ...|ທົນ...||
 c>G Bc z GBG | c>G Bc z GBG | !arpeggio!!fermata![CEGc]8!fine! |] %43
w: |||
V:2
 x8 | x8 | x8 | x8 | x8 | x8 || x8 | x8 | x8 | x8 | x8 | x8 | x8 | z3/2 G/ B!>!c z !>!c z c/c/ |: %14
 x8 | x8 | x8 | x8 | x8 | x8 | x8 | x8 || x8 | x8 | x8 | x8 | x8 | x8 | x8 | %29
 z3/2 G/ B!>!c z !>!c z c/c/ || x8 | x8 | x8 | x8 | x8 | x8 | x8 ||1 %37
 z3/2 G/ B!>!c z !>!c z c/"_(Solo verse B)"c/ :|2 %38
 z3/2 G/ B"_Sax _____________________________________________________________________________________________"!>!c z GBG || %39
 x8 | x8 | x8 | x8 |] %43

